!!!COM: Mozart, Wolfgang Amadeus
!!!OPR: Quartet in E-flat Major
!!!OTL:
!!!OMV: 3
!!!SCT: K 428
!!!SCA: Chronologisch-thematisches Verzeichnis sämtlicher Tonwerke Wolfgang Amade Mozarts (L. von Köchel; 1862, 2/1905, 3/1937, 1947)
!!!YOR: Breitkopf & Härtel Edition
!!!EED: Frances Bennion
!!!ENC: Frances Bennion
!!!CDT: 1756/1/27/-1791/12/5/
!!!OCY: Österreich
!!!YEC: Copyright (c) 1994, 2000 Center for Computer Assisted Research in the Humanities
!!!YEM: Rights to all derivative editions reserved.
!!!YEM: Refer to licensing agreement for further details.
!!!YEN: United States of America
**kern	**kern	**kern	**kern
*k[b-e-a-]	*k[b-e-a-]	*k[b-e-a-]	*k[b-e-a-]
*E-:	*E-:	*E-:	*E-:
*clefG	*clefG	*clefF	*clefC
*M3/4	*M3/4	*M3/4	*M3/4
*tb32	*tb32	*tb32	*tb32
=0-	=0-	=0-	=0-
2r	2r	2r	2r
4ee-	4r	4r	4r
=1	=1	=1	=1
2e- 2G	2B-	2G	2GG
4ee-	4r	4r	4r
=2	=2	=2	=2
2f 2A-	2e- 2c	2A-	2AA-
8cc	4r	4r	4r
8b-	.	.	.
=3	=3	=3	=3
8b-	2.r	2.r	2.r
8a-	.	.	.
8a-	.	.	.
8g	.	.	.
8a-	.	.	.
8g	.	.	.
=4	=4	=4	=4
8g	2.r	2.r	2.r
8f	.	.	.
8f	.	.	.
8e-	.	.	.
8f	.	.	.
8e-	.	.	.
=5	=5	=5	=5
8e-	2f	2A-	2BB-
8d	.	.	.
8d	.	.	.
8f	.	.	.
8a-	4B-	8F	4D
8f	.	8A-	.
=6	=6	=6	=6
8f	2B-	8A-	2E-
8g	.	8B-	.
4e-	.	4G	.
4ee-	4r	4r	4r
=7	=7	=7	=7
2e- 2G	2c	2E-	2C
4ee-	4r	4r	4r
=8	=8	=8	=8
2e- 2c	2A	2F	[2.FF
8gg	8ee-	4r	.
8ff	8dd	.	.
=9	=9	=9	=9
8ff	8dd	2r	2.FF_
8ee-	8cc	.	.
8ee-	8cc	.	.
8dd	8b-	.	.
8ee-	8cc	8g	.
8dd	8b-	8f	.
=10	=10	=10	=10
8dd	8b-	8f	2.FF]
8cc	8a	8e-	.
8cc	8a	8e-	.
8b-	8b-	8d	.
8cc	8a	8e-	.
8b-	8b-	8d	.
=11	=11	=11	=11
4a	8e-	8c	4F
.	8d	8B-	.
4ff	8c	8A	2r
.	8d	8B-	.
4ff	8e-	8c	.
.	8c	8A	.
=12	=12	=12	=12
8.ff	8d	8B-	4BB-
.	8e-	8c	.
32gg	.	.	.
32aa	.	.	.
4bb-	8f	8d	2r
.	8e-	8c	.
8.b-	8f	8d	.
.	8d	8B-	.
16dd	.	.	.
=13	=13	=13	=13
4ff	8c	8A	4FF
.	8d	8B-	.
4ff	8e-	8c	2r
.	8d	8B-	.
4ff	8e-	8c	.
.	8c	8A	.
=14	=14	=14	=14
8.ff	8d	8B-	4BB-
.	8e-	8c	.
32gg	.	.	.
32aa	.	.	.
4bb-	8f	8d	4r
.	8e-	8c	.
8.b-	8d	8B-	4G
.	8B-	8G	.
16dd	.	.	.
=15	=15	=15	=15
8.cc	8g	8e-	4E-
.	8f	8d	.
32ee-	.	.	.
32ff	.	.	.
4gg	8e-	8c	4r
.	8d	8B-	.
8.a	8e-	8c	4F
.	8e-	8A	.
16cc	.	.	.
=16	=16	=16	=16
4.b-	4d	8B-	[2.BB-
.	.	8f	.
.	2r	8d	.
8cc	.	8A	.
8dd	.	8B-	.
8ee-	.	8c	.
=17	=17	=17	=17
8ff	[2.b- 2.f	[2.d 2.B-	2.BB-_
8bb-	.	.	.
8ff	.	.	.
8ee-	.	.	.
8dd	.	.	.
8ee-	.	.	.
=18	=18	=18	=18
8ff	2.b- 2.f_	2.d 2.B-_	2.BB-_
8bb-	.	.	.
8ff	.	.	.
8ee-	.	.	.
8dd	.	.	.
8ee-	.	.	.
=19	=19	=19	=19
8ff	2.b- 2.f_	2.d 2.B-_	2.BB-_
8bb-	.	.	.
8ff	.	.	.
8ee-	.	.	.
8dd	.	.	.
8ee-	.	.	.
=20	=20	=20	=20
8ff	4b- 4f]	4d 4B-]	4BB-]
8bb-	.	.	.
8bb-	8b-	8g	2r
8aa	8a	8f	.
8gg	8g	8e-	.
8ff	8f	8d	.
=21	=21	=21	=21
8ff	8f	8d	4E-
8ee-	8e-	8c	.
4dd	4d	4B-	4F
4cc	4c	4A	4FF
=22	=22	=22	=22
8cc	4B-	4B-	4BB-
8b-	.	.	.
8b-	4r	4r	4r
8b-	.	.	.
8b-	4f	4d	4D
8b-	.	.	.
=23	=23	=23	=23
8b-	4g	4c	4E-
8cc	.	.	.
8cc	4r	4r	4r
8cc	.	.	.
8cc	4a	4e-	4F
8dd	.	.	.
=24	=24	=24	=24
8cc	8b-	8d	4G
8b-	8B-	8D	.
4b-	8B-	8D	4r
.	8B-	8D	.
4r	8B-	8D	4GG
.	8B-	8D	.
=25	=25	=25	=25
2.r	8B-	8D	4FF
.	8c	8F	.
.	8c	8F	4r
.	8c	8F	.
.	8c	8F	4FF
.	8d	8F	.
=26	=26	=26	=26
2.r	4B-	4D	4BB-
.	2r	2r	4B-
.	.	.	4r
=27	=27	=27	=27
8b-	8e-	8B-	8G
8r	8r	8r	8r
8ee-	8g	8B-	8E-
8r	8r	8r	8r
8b-	8e-	8e-	8G
8r	8r	8r	8r
=28	=28	=28	=28
8cc	8e-	8c	8A-
8r	8r	8r	8r
8ee-	8e-	8B-	8G
4.r	4.r	4.r	4.r
=29	=29	=29	=29
8cc	8e-	8c	8A-
8r	8r	8r	8r
8a-	8d	8B-	8F
8r	8r	8r	8r
8g	8e-	8B-	8E-
8r	8r	8r	8r
=30	=30	=30	=30
8f	8f	8B-	8D
8r	8r	8r	8r
8b-	8d	8F	8BB-
4.r	4.r	4.r	4.r
=31	=31	=31	=31
8g	8e-	8B-	8EE-
8r	8r	8r	8r
8e-	8c	8A-	8AA-
8r	8r	8r	8r
8a-	8f	8c	8FF
8r	8r	8r	8r
=32	=32	=32	=32
8f	8d	8B-	8BB-
8r	8r	8r	8r
8b-	8g	8d	8GG
8r	8r	8r	8r
8g	8e-	8c	8C
8r	8r	8r	8r
=33	=33	=33	=33
8cc	8e-	8c	8AA-
8r	8r	8r	8r
8a-	8d	8B-	8FF
8r	8r	8r	8r
8g	8e-	8B-	8EE-
8r	8r	8r	8r
=34	=34	=34	=34
8f	4d	8B-	4BB-
8f	.	8d	.
8g	4r	8e-	2r
8a-	.	8f	.
8b-	4bb-	8g	.
8g	.	8e-	.
=35	=35	=35	=35
8f	2b-	8d	2.r
8f	.	8d	.
8g	.	8e-	.
8a-	.	8f	.
8b-	4bb-	8g	.
8g	.	8e-	.
=36	=36	=36	=36
2f	2b-	2d	2.r
4ee-	4r	4r	.
=37	=37	=37	=37
2e- 2G	2B-	2G	2GG
4ee-	4r	4r	4r
=38	=38	=38	=38
2f 2A-	2e- 2c	2A-	2AA-
8cc	4r	4r	4r
8b-	.	.	.
=39	=39	=39	=39
8b-	2.r	2r	2.r
8a-	.	.	.
8a-	.	.	.
8g	.	.	.
8a-	.	8c	.
8g	.	8B-	.
=40	=40	=40	=40
8g	2.r	8B-	2.r
8f	.	8A-	.
8f	.	8A-	.
8e-	.	8G	.
8f	.	8A-	.
8e-	.	8G	.
=41	=41	=41	=41
8e-	[2.A-	8G	2.BB-
8d	.	8F	.
8d	.	8F	.
8f	.	8D	.
8a-	.	8F	.
8f	.	8D	.
=42	=42	=42	=42
8f	8A-]	8D	2EE-
8g	8G	8E-	.
4e-	4B-	4G	.
4ee-	4r	4r	4r
=43	=43	=43	=43
2e- 2G	2d-	2B- 2E-	2GG
4ee-	4r	4r	4r
=44	=44	=44	=44
2e- 2A-	2c	2A- 2E-	2AA-
4ff	4r	4r	4r
=45	=45	=45	=45
2f 2A	2e- 2c	2A	2AA
4gg	4r	4r	4r
=46	=46	=46	=46
2g 2B-	2e- 2G	[2.B-	[2.BB-
[4b-	[4g	.	.
=47	=47	=47	=47
4b-]	4g]	2B-]	2.BB-]
4a-	4f	.	.
4f	4d	4A-	.
=48	=48	=48	=48
4e-	8e-	8G	4E-
.	8B-	8G	.
4r	8G	8E-	2r
.	8A-	8F	.
8.e-	8B-	8G	.
.	8G	8E-	.
16g	.	.	.
=49	=49	=49	=49
4b-	8f	8A-	4BB-
.	8e-	8G	.
4b-	8d	8F	2r
.	8e-	8G	.
4b-	8f	8A-	.
.	8d	8F	.
=50	=50	=50	=50
8.b-	8e-	8G	4E-
.	8f	8A-	.
32cc	.	.	.
32dd	.	.	.
4ee-	8g	8B-	2r
.	8f	8A-	.
8.e-	8g	8B-	.
.	8e-	8G	.
16g	.	.	.
=51	=51	=51	=51
8b-	8d	8F	4BB-
8b-	8e-	8G	.
8b-	8f	8A-	2r
8b-	8e-	8G	.
8b-	8f	8A-	.
8b-	8d	8F	.
=52	=52	=52	=52
8.b-	8e-	8G	4EE-
.	8f	8A-	.
32cc	.	.	.
32dd	.	.	.
4ee-	8g	8B-	4r
.	8e-	8G	.
8.e-	8c	8G	4C
.	8G	8E-	.
16g	.	.	.
=53	=53	=53	=53
8.f	8c	8A-	4AA-
.	8B-	8G	.
32a-	.	.	.
32b-	.	.	.
4cc	8A-	8F	4r
.	8G	8E-	.
8.d	8A-	8F	4BB-
.	8A-	8D	.
16f	.	.	.
=54	=54	=54	=54
4.e-	4G	8E-	[2.EE-
.	.	8B-	.
.	2r	8G	.
8f	.	8D	.
8g	.	8E-	.
8a-	.	8F	.
=55	=55	=55	=55
8b-	[2.e- 2.G	[2.G 2.E-	2.EE-_
8ee-	.	.	.
8b-	.	.	.
8a-	.	.	.
8g	.	.	.
8a-	.	.	.
=56	=56	=56	=56
8b-	2.e- 2.G_	2.G 2.E-_	2.EE-_
8ee-	.	.	.
8b-	.	.	.
8a-	.	.	.
8g	.	.	.
8a-	.	.	.
=57	=57	=57	=57
8b-	2.e- 2.G_	2.G 2.E-_	2.EE-_
8ee-	.	.	.
8b-	.	.	.
8a-	.	.	.
8g	.	.	.
8a-	.	.	.
=58	=58	=58	=58
8b-	4e- 4G]	4G 4E-]	4EE-]
8ee-	.	.	.
8ee-	8g	4r	4r
8dd	8b-	.	.
8cc	8a-	4e-	4E-
8b-	8g	.	.
=59	=59	=59	=59
8b-	8g	4c	4AA-
8a-	8f	.	.
4g	4e-	4B-	4BB-
4f	4d	4A-	4BB-
=60	=60	=60	=60
8e-	4.e-	4G	2.EE-
8b-	.	.	.
8ee-	.	4.r	.
8ff	8B-	.	.
8gg	8e-	.	.
8aa-	8f	8B-	.
=61	=61	=61	=61
8bb-	8g	8E-	2.EE-
8eee-	8a-	8F	.
8bb-	8b-	8G	.
8aa-	8ee-	8A-	.
8gg	8b-	8B-	.
8aa-	8a-	8e-	.
=62	=62	=62	=62
8bb-	8g	8B-	2.EE-
8eee-	8a-	8A-	.
8bb-	8b-	8G	.
8aa-	8ee-	8A-	.
8gg	8b-	8B-	.
8aa-	8a-	8e-	.
=63	=63	=63	=63
8bb-	8g	8B-	2.EE-
8eee-	8a-	8A-	.
8bb-	8b-	8G	.
8aa-	8ee-	8A-	.
8gg	8b-	8B-	.
8aa-	8a-	8e-	.
=64	=64	=64	=64
8bb-	8g	8B-	2EE-
8eee-	8b-	8g	.
8eee-	8ee-	8g	.
8ddd	8dd	8b-	.
8ccc	8cc	8a-	4E-
8bb-	8b-	8g	.
=65	=65	=65	=65
8bb-	8b-	8g	4A-
8aa-	8a-	8f	.
4gg	4g	4e-	4B-
4ff	4f	4d	4BB-
=66	=66	=66	=66
8ff	4e-	4e-	4E-
8ee-	.	.	.
8ee-	4r	4r	4r
8ee-	.	.	.
8ee-	4b-	4g	4G
8ee-	.	.	.
=67	=67	=67	=67
8ee-	4cc	4f	4A-
8ff	.	.	.
8ff	4r	4r	4r
8ff	.	.	.
8ff	4dd	4a-	4B-
8gg	.	.	.
=68	=68	=68	=68
8ff	8ee-	8g	4c
8ee-	8e-	8G	.
4ee-	8e-	8G	4r
.	8e-	8G	.
4r	8e-	8G	4C
.	8e-	8G	.
=69	=69	=69	=69
2.r	8e-	8G	4BB-
.	8f	8B-	.
.	8f	8B-	4r
.	8f	8B-	.
.	8f	8B-	4BB-
.	8g	8B-	.
=70	=70	=70	=70
2r	4e-	4G	4EE-
.	2r	2r	4E-
8.ee-	.	.	4r
16ff	.	.	.
=71	=71	=71	=71
4gg	2.r	2.r	2.r
4ee-	.	.	.
4dd	.	.	.
=72	=72	=72	=72
4.cc	2.g	2.e-	[2.CC
8ee-	.	.	.
8cc	.	.	.
8ee-	.	.	.
=73	=73	=73	=73
8dd	2.a-	2.f	2.CC_
8ff	.	.	.
8dd	.	.	.
8ff	.	.	.
8b	.	.	.
8dd	.	.	.
=74	=74	=74	=74
8cc	2.g	2.e-	2.CC_
8ee-	.	.	.
8gg	.	.	.
8ff#	.	.	.
8ff	.	.	.
8ee-	.	.	.
=75	=75	=75	=75
8dd	2.a-	2.f	2.CC]
8ff	.	.	.
8aa-	.	.	.
8ff	.	.	.
8dd	.	.	.
8b	.	.	.
=76	=76	=76	=76
8cc	[2.g	[2.e-	[2C
8gg	.	.	.
8ff#	.	.	.
8ff	.	.	.
8ee-	.	.	8C]
8dd	.	.	8D
=77	=77	=77	=77
8dd	4g]	4e-]	4E-
8cc	.	.	.
8cc	4f	4d	4F
8b-	.	.	.
8b-	4e-	4c	4FF
8a	.	.	.
=78	=78	=78	=78
8.gg	2d	2.B-	2BB-
16ff	.	.	.
4ff	.	.	.
8ee-	4f	.	4D
8dd	.	.	.
=79	=79	=79	=79
8dd	4g	4G	4E-
8cc	.	.	.
8ee-	4r	4r	4r
8cc	.	.	.
8b-	4e-	4c	4F
8a	.	.	.
=80	=80	=80	=80
4b-	4.b-	8d	[2.BB-
.	.	8f	.
2r	.	8d	.
.	8dd	8f	.
.	8b-	8d	.
.	8dd	8f	.
=81	=81	=81	=81
2aa	8cc	8e-	2.BB-_
.	8ee-	8g-	.
.	8cc	8e-	.
.	8ee-	8g-	.
8ccc	8a	8c	.
8aa	8cc	8e-	.
=82	=82	=82	=82
2.bb-	8b-	8d	2.BB-_
.	8dd	8f	.
.	8ff	8d	.
.	8ee	8f	.
.	8ee-	8B-	.
.	8dd	8f	.
=83	=83	=83	=83
8aa	8cc	8e-	2.BB-_
8bb-	8dd	8f	.
8ccc	8ee-	8g-	.
8aa	8cc	8e-	.
8eee-	8cc	8c	.
8ccc	8a	8e-	.
=84	=84	=84	=84
4bb-	4b-	4d	4BB-]
2r	4r	2r	2r
.	8.b-	.	.
.	16cc	.	.
=85	=85	=85	=85
2.r	4dd	2.r	2.r
.	4b-	.	.
.	4a	.	.
=86	=86	=86	=86
2.d	4.g	2.B-	[2.GG
.	8b-	.	.
.	8g	.	.
.	8b-	.	.
=87	=87	=87	=87
2.e-	8a	2.c	2.GG_
.	8cc	.	.
.	8a	.	.
.	8cc	.	.
.	8f#	.	.
.	8a	.	.
=88	=88	=88	=88
2.d	8g	2.B-	2.GG_
.	8b-	.	.
.	8dd	.	.
.	8cc#	.	.
.	8cc	.	.
.	8b-	.	.
=89	=89	=89	=89
2.e-	8a	2.c	2.GG_
.	8cc	.	.
.	8ee-	.	.
.	8cc	.	.
.	8a	.	.
.	8f#	.	.
=90	=90	=90	=90
4d	4g	8B-	4GG]
.	.	8dd	.
2r	2r	8cc#	2r
.	.	8cc	.
.	.	8b-	.
.	.	8a	.
=91	=91	=91	=91
4d	4B-	8a	2r
.	.	8g	.
4c	4A	8g	.
.	.	8f	.
4B-	4G	8f	4C
.	.	8e	.
=92	=92	=92	=92
2.c	2.A	4.f	[2.FF
.	.	8a	.
.	.	8f	.
.	.	8a	.
=93	=93	=93	=93
2.d-	2.B-	8g	2.FF_
.	.	8b-	.
.	.	8g	.
.	.	8b-	.
.	.	8e	.
.	.	8g	.
=94	=94	=94	=94
4.ff	8A	8f	2.FF_
.	8c	8a	.
.	8A	8cc	.
8aa	8c	8b	.
8ff	8f	8b-	.
8aa	8c	8a	.
=95	=95	=95	=95
8gg	8e	8b-	2.FF]
8bb-	8g	8cc	.
8gg	8e	8dd-	.
8bb-	8g	8b-	.
8ee	8d-	8g	.
8gg	8B-	8e	.
=96	=96	=96	=96
8ff	4A	8f	4.F
8aa	.	8c	.
8ccc	2r	8A	.
8bb	.	8c	8A
8bb-	.	8f	8F
8aa	.	8c	8A
=97	=97	=97	=97
8bb-	2.r	8e	8G
8ccc	.	8g	8B-
8ddd-	.	8e	8G
8bb-	.	8g	8B-
8gg	.	8d-	8E
8ee	.	8B-	8G
=98	=98	=98	=98
[2ff	[2.f	8A	8F
.	.	8f	8c
.	.	8a	8e-
.	.	8b-	8d
8ff]	.	8cc	8c
8gg	.	8dd	8B-
=99	=99	=99	=99
8aa	2.f_	8cc	8A
8bb-	.	8b-	8G
8ccc	.	8a	8F
8ddd	.	8g	8E-
8eee-	.	8f	8D
8aa	.	8e-	8C
=100	=100	=100	=100
4.bb-	4.f]	8d	[2.BB-
.	.	8B-	.
.	.	8B-	.
8ddd	8d	8F	.
8bb-	8B-	8D	.
8ddd	8d	8F	.
=101	=101	=101	=101
8ccc	8c	8E-	2.BB-_
8eee-	8e-	8F	.
8ccc	8c	8E-	.
8eee-	8e-	8F	.
8aa	8A	8E-	.
8ccc	8c	8F	.
=102	=102	=102	=102
8bb-	8B-	8D	2.BB-_
8ddd	8d	8F	.
8fff	8f	8D	.
8eee	8e	8F	.
8eee-	8e-	8D	.
8ddd	8d	8F	.
=103	=103	=103	=103
8ccc	8c	8E-	2.BB-_
8ddd	8d	8F	.
8eee-	8e-	8E-	.
8ccc	8c	8F	.
8aa	8A	8E-	.
8ccc	8c	8F	.
=104	=104	=104	=104
4bb-	4B-	4D	4BB-]
2r	2r	2r	2r
==	==	==	==
*-	*-	*-	*-
!!!RWG1: This file contains only pitch and duration data.
!!!RWG2: Transposing instruments are not transposed.
!!!RWG3: Spines may have incompatible meters.
!!!RWG4: Durations of rests and tied notes may be interpreted.
!!!RWG: Key is interpreted using the Humdrum key tool.
!!!AFT: stage1
!!!END: 1997/04/15
!!format changes:
!!content changes:
!!public access: complete
!!!KEY: 3086394260
!!!EMD: Converted from MuseData to Humdrum Dec 16, 2000, by Andreas Kornstaedt using muse2kern.
